docs/assets/GitHub-Mark.svg

<svg width="120" height="120" viewBox="0 0 120 120" fill="none" xmlns="http://www.w3.org/2000/svg"><path fill-rule="evenodd" clip-rule="evenodd" d="M60 0C26.85 0 0 26.85 0 60c0 26.55 17.175 48.975 41.025 56.925 3 .525 4.125-1.275 4.125-2.85 0-1.425-.075-6.15-.075-11.175C30 105.675 26.1 99.225 24.9 95.85c-.675-1.725-3.6-7.05-6.15-8.475-2.1-1.125-5.1-3.9-.075-3.975 4.725-.075 8.1 4.35 9.225 6.15 5.4 9.075 14.025 6.525 17.475 4.95.525-3.9 2.1-6.525 3.825-8.025-13.35-1.5-27.3-6.675-27.3-29.625 0-6.525 2.325-11.925 6.15-16.125-.6-1.5-2.7-7.65.6-15.9 0 0 5.025-1.575 16.5 6.15 4.8-1.35 9.9-2.025 15-2.025s10.2.675 15 2.025c11.475-7.8 16.5-6.15 16.5-6.15 3.3 8.25 1.2 14.4.6 15.9 3.825 4.2 6.15 9.525 6.15 16.125 0 23.025-14.025 28.125-27.375 29.625 2.175 1.875 4.05 5.475 4.05 11.1 0 8.025-.075 14.475-.075 16.5 0 1.575 1.125 3.45 4.125 2.85C102.825 108.975 120 86.475 120 60c0-33.15-26.85-60-60-60z" fill="#394150"/></svg>

<svg width="120" height="120" viewBox="0 0 120 120" fill="none" xmlns="http://www.w3.org/2000/svg">
<path fill-rule="evenodd" clip-rule="evenodd" d="M60 0C26.85 0 0 26.85 0 60C0 86.55 17.175 108.975 41.025 116.925C44.025 117.45 45.15 115.65 45.15 114.075C45.15 112.65 45.075 107.925 45.075 102.9C30 105.675 26.1 99.225 24.9 95.85C24.225 94.125 21.3 88.8 18.75 87.375C16.65 86.25 13.65 83.475 18.675 83.4C23.4 83.325 26.775 87.75 27.9 89.55C33.3 98.625 41.925 96.075 45.375 94.5C45.9 90.6 47.475 87.975 49.2 86.475C35.85 84.975 21.9 79.8 21.9 56.85C21.9 50.325 24.225 44.925 28.05 40.725C27.45 39.225 25.35 33.075 28.65 24.825C28.65 24.825 33.675 23.25 45.15 30.975C49.95 29.625 55.05 28.95 60.15 28.95C65.25 28.95 70.35 29.625 75.15 30.975C86.625 23.175 91.65 24.825 91.65 24.825C94.95 33.075 92.85 39.225 92.25 40.725C96.075 44.925 98.4 50.25 98.4 56.85C98.4 79.875 84.375 84.975 71.025 86.475C73.2 88.35 75.075 91.95 75.075 97.575C75.075 105.6 75 112.05 75 114.075C75 115.65 76.125 117.525 79.125 116.925C102.825 108.975 120 86.475 120 60C120 26.85 93.15 0 60 0Z" fill="#394150"/>
</svg>
